icons/harddrive.svg

<svg xmlns="http://www.w3.org/2000/svg" width="96" height="96"><path d="M12.586 60L19.4 12.5c0-.3.3-.5.6-.5h56c.3 0 .6.2.6.5L83.414 60H12.586zM12 68v16h72V68H12zm-.5-56.6L4.6 59.5C4.2 62.3 4 65.1 4 68v16c0 2.1.8 4.2 2.3 5.7C7.8 91.2 9.9 92 12 92h72c2.1 0 4.2-.8 5.7-2.3 1.5-1.5 2.3-3.6 2.3-5.7V68c0-2.9-.2-5.7-.6-8.5l-6.9-48.1C83.9 7.2 80.3 4 76 4H20c-4.3 0-7.9 3.2-8.5 7.4zM72 76c0-2.208 1.792-4 4-4s4 1.792 4 4-1.792 4-4 4-4-1.792-4-4z" fill-rule="evenodd" fill="#454545" stroke="rgba(0,0,0,0)" stroke-linecap="square"/></svg>

<?xml version="1.0" standalone="no"?><!-- Generator: Gravit.io --><svg xmlns="http://www.w3.org/2000/svg" xmlns:xlink="http://www.w3.org/1999/xlink" width="96" height="96"><path d=" M 12.58607068607 60 L 19.4 12.5 L 19.4 12.5 C 19.4 12.2 19.7 12 20 12 L 76 12 C 76.3 12 76.6 12.2 76.6 12.5 L 83.41392931393 60 L 12.58607068607 60 Z  M 12 68 L 12 84 L 84 84 L 84 68 L 12 68 Z  M 11.5 11.4 L 4.6 59.5 C 4.2 62.3 4 65.1 4 68 L 4 84 C 4 86.1 4.8 88.2 6.3 89.7 C 7.8 91.2 9.9 92 12 92 L 84 92 C 86.1 92 88.2 91.2 89.7 89.7 C 91.2 88.2 92 86.1 92 84 L 92 68 C 92 65.1 91.8 62.3 91.4 59.5 L 84.5 11.4 C 83.9 7.2 80.3 4 76 4 L 20 4 C 15.7 4 12.1 7.2 11.5 11.4 L 11.5 11.4 Z  M 72 76 C 72 73.79233988198995 73.79233988198995 72 76 72 C 78.20766011801005 72 80 73.79233988198995 80 76 C 80 78.20766011801005 78.20766011801005 80 76 80 C 73.79233988198995 80 72 78.20766011801005 72 76 Z " fill-rule="evenodd" fill="#454545" stroke-width="1" stroke="rgba(0,0,0,0)" stroke-linejoin="miter" stroke-linecap="square"/></svg>
